X: 32296
T: Pigeon On The Gate, The
R: reel
M: 4/4
K: Edorian
dc|BE ~E2 BEdE|BE ~E2 dBAF|D2 (3FED ADFE|DEFA BAFA|
BE ~E2 BEdE|BE ~E2 B2 AF|D2 FA dfec|dBAF E2:|
FA|Beed efed|(3Bcd ef gedB|Addc d3 B|A2 FE DEFA|
Beed efed|(3Bcd ef g2 fg|af (3gfe fd ec|dBAF E2:|
|:BEED EdBE|E/E/E B/c/d BAFE|D3F ADFE|D2 F/G/A dfed|
BEED EdBE|E/E/E B/c/d BAFE|D2 F/G/A dfec|dBAF E3d:|
B~e3 ^dee=d|B~e3 fded|B~A3 F/G/A Bc|dBce dBAd|
B~e3 ^dee=d|B~e3 fded|BA F/G/A defe|dBAF E3 d|
B~e3 ^dee=d|B~e3 fded|B~A3 F/G/A Bc|defe dBAF|
~G3B ~E3d|B~E3 fded|BA F/G/A defe|dBAF E3 d||

